src/.vuepress/public/assets/websites/ai-code-reviewer.svg

<svg xmlns="http://www.w3.org/2000/svg" xmlns:xlink="http://www.w3.org/1999/xlink" width="500" zoomAndPan="magnify" viewBox="0 0 375 374.999991" height="500" preserveAspectRatio="xMidYMid meet" version="1.0"><defs><clipPath id="e50c636c57"><path d="M 0 11.71875 L 375 11.71875 L 375 363.46875 L 0 363.46875 Z M 0 11.71875 " clip-rule="nonzero"/></clipPath></defs><path fill="#455097" d="M 141.210938 269.667969 C 154.101562 269.667969 164.648438 259.117188 164.648438 246.21875 C 164.648438 233.320312 154.101562 222.769531 141.210938 222.769531 C 128.320312 222.769531 117.773438 233.320312 117.773438 246.21875 C 117.773438 259.117188 128.320312 269.667969 141.210938 269.667969 Z M 141.210938 269.667969 " fill-opacity="1" fill-rule="nonzero"/><path fill="#455097" d="M 234.960938 269.667969 C 247.851562 269.667969 258.398438 259.117188 258.398438 246.21875 C 258.398438 233.320312 247.851562 222.769531 234.960938 222.769531 C 222.070312 222.769531 211.523438 233.320312 211.523438 246.21875 C 211.523438 259.117188 222.070312 269.667969 234.960938 269.667969 Z M 234.960938 269.667969 " fill-opacity="1" fill-rule="nonzero"/><g clip-path="url(#e50c636c57)"><path fill="#455097" d="M 340.429688 211.042969 L 329.882812 211.042969 C 314.648438 153.589844 263.085938 111.382812 199.804688 105.519531 L 199.804688 23.445312 C 199.804688 16.410156 195.117188 11.71875 188.085938 11.71875 C 181.054688 11.71875 176.367188 16.410156 176.367188 23.445312 L 176.367188 105.519531 C 113.085938 110.207031 61.523438 153.589844 46.289062 211.042969 L 35.742188 211.042969 C 15.820312 211.042969 0.585938 226.285156 0.585938 246.21875 C 0.585938 266.152344 15.820312 281.394531 35.742188 281.394531 L 46.289062 281.394531 C 52.148438 303.671875 63.867188 323.605469 80.273438 340.019531 L 70.898438 340.019531 C 63.867188 340.019531 59.179688 344.707031 59.179688 351.742188 C 59.179688 358.777344 63.867188 363.46875 70.898438 363.46875 L 305.273438 363.46875 C 312.304688 363.46875 316.992188 358.777344 316.992188 351.742188 C 316.992188 344.707031 312.304688 340.019531 305.273438 340.019531 L 294.726562 340.019531 C 311.132812 323.605469 322.851562 303.671875 328.710938 281.394531 L 339.257812 281.394531 C 359.179688 281.394531 374.414062 266.152344 374.414062 246.21875 C 374.414062 226.285156 360.351562 211.042969 340.429688 211.042969 Z M 82.617188 240.355469 C 82.617188 218.078125 101.367188 199.320312 123.632812 199.320312 L 252.539062 199.320312 C 274.804688 199.320312 293.554688 218.078125 293.554688 240.355469 L 293.554688 252.082031 C 293.554688 274.359375 274.804688 293.117188 252.539062 293.117188 L 123.632812 293.117188 C 101.367188 293.117188 82.617188 274.359375 82.617188 252.082031 Z M 82.617188 240.355469 " fill-opacity="1" fill-rule="nonzero"/></g></svg>

<svg xmlns="http://www.w3.org/2000/svg" width="500" height="500" version="1.0" viewBox="0 0 375 375"><defs><clipPath id="a"><path d="M0 11.719h375v351.75H0Zm0 0"/></clipPath></defs><path fill="#455097" d="M141.21 269.668c12.892 0 23.438-10.55 23.438-23.45 0-12.898-10.546-23.448-23.437-23.448-12.89 0-23.438 10.55-23.438 23.449 0 12.898 10.547 23.449 23.438 23.449m93.749 0c12.892 0 23.438-10.55 23.438-23.45 0-12.898-10.546-23.448-23.437-23.448-12.89 0-23.438 10.55-23.438 23.449 0 12.898 10.547 23.449 23.438 23.449m0 0"/><g clip-path="url(#a)"><path fill="#455097" d="M340.43 211.043h-10.547c-15.235-57.453-66.797-99.66-130.078-105.523V23.445c0-7.035-4.688-11.726-11.72-11.726-7.03 0-11.718 4.691-11.718 11.726v82.075c-63.281 4.687-114.844 48.07-130.078 105.523H35.742c-19.922 0-35.156 15.242-35.156 35.176 0 19.933 15.234 35.176 35.156 35.176H46.29c5.86 22.277 17.578 42.21 33.984 58.625h-9.375c-7.03 0-11.718 4.687-11.718 11.722s4.687 11.727 11.718 11.727h234.375c7.032 0 11.72-4.692 11.72-11.727s-4.688-11.722-11.72-11.722h-10.546c16.406-16.415 28.125-36.348 33.984-58.625h10.547c19.922 0 35.156-15.243 35.156-35.176 0-19.934-14.062-35.176-33.984-35.176M82.617 240.355c0-22.277 18.75-41.035 41.016-41.035h128.906c22.266 0 41.016 18.758 41.016 41.035v11.727c0 22.277-18.75 41.035-41.016 41.035H123.633c-22.266 0-41.016-18.758-41.016-41.035Zm0 0"/></g></svg>
